X:1
T:St. Mary Magdalene, CM
T:Johann Crüger, 1653
T:St. Mary Magdalene, CM
T:Public Domain
C:Johann Cr&#252;ger, 1653
Z:Public Domain
%%score ( 1 2 ) ( 3 4 )
L:1/8
M:none
K:G
V:1 treble 
V:2 treble 
V:3 bass 
V:4 bass 
V:1
 [B,G]2 | [CE]2 D2 [B,G]2 [DA]2 | [DB]2 (DE) [FA]2 [GB]2 | [Gd]2 [Gc]2 [GB]2 [FA]2 x | G6 (dc) | %5
 [DB]2 [Gd]2 [Ge]2 [Gd]2 | (EF) [GB]2 [FA]2 [Gd]2 | (EF)(Bc) [GB]2 [FA]2 x | G6 |] %9
V:2
 x2 | x2 D2 x4 | x2 B2 x4 | x9 | G6 D2 | x8 | c2 x6 | A2 G2 x5 | G6 |] %9
V:3
 [G,,G,]2 | [C,G,]2 [B,,G,]2 [E,G,]2 [D,F,]2 | G,2 (B,^C) [D,D]2 [G,D]2 | %3
 [B,,D]2 [C,E]2 D,2 z C x | [G,B,]6 [F,A,]2 | G,2 [B,,G,]2 [C,C]2 [G,B,]2 | %6
 A,2 (B,C) [D,D]2 [B,,D]2 | [C,C]2 ([B,,D][A,,E]) D,2 z C x | [G,,B,]6 |] %9
V:4
 x2 | x8 | G,2 G,2 x4 | x4 D3 D,2 | x8 | G,2 x6 | A,2 G,2 x4 | x4 D3 D,2 | x6 |] %9

